public/assets/heatEq1.svg

<svg width="125" height="98" viewBox="0 0 125 98" fill="none" xmlns="http://www.w3.org/2000/svg">
<path d="M31.3585 94.6074V97.8952H7.04883V94.6074" fill="url(#paint0_linear_175_695)"/>
<path d="M118.874 94.6064V97.8942H94.5645V94.6064" fill="url(#paint1_linear_175_695)"/>
<path d="M124.264 94.607H1.65749C1.26742 94.607 0.960938 94.3005 0.960938 93.9104V0.696561C0.960938 0.306487 1.26742 0 1.65749 0H124.264C124.654 0 124.961 0.306487 124.961 0.696561V93.9104C124.961 94.3005 124.654 94.607 124.264 94.607Z" fill="url(#paint2_linear_175_695)"/>
<path d="M41.8764 80.6903C60.2417 80.6903 75.1297 65.802 75.1297 47.4364C75.1297 29.0709 60.2417 14.1826 41.8764 14.1826C23.5111 14.1826 8.62305 29.0709 8.62305 47.4364C8.62305 65.802 23.5111 80.6903 41.8764 80.6903Z" fill="#FEF7EC" stroke="#062023" stroke-miterlimit="10" stroke-linecap="round" stroke-linejoin="round"/>
<path d="M41.9178 47.8962C42.1547 47.1857 42.1129 46.5448 42.0014 45.9458C41.8621 45.3468 41.6671 44.7616 41.4302 44.1765C40.9566 43.0063 40.3854 41.8221 39.856 40.5962C38.7694 38.1443 37.7664 35.5392 37.1395 32.7111C36.833 31.3041 36.624 29.8413 36.5683 28.3367C36.5126 26.8461 36.624 25.2997 36.9723 23.7951C37.3067 22.2906 37.9057 20.8139 38.7555 19.5322C39.1734 18.8913 39.661 18.2923 40.2182 17.7769C40.7616 17.2475 41.3606 16.8017 42.0153 16.4395C41.8482 17.1778 41.6949 17.8604 41.5835 18.5291C41.472 19.1978 41.3884 19.8526 41.3327 20.4934C41.2352 21.7612 41.2491 22.9871 41.3467 24.1991C41.5417 26.6092 42.0432 29.0194 42.5865 31.527C42.8651 32.7808 43.1438 34.0625 43.4084 35.3859C43.6731 36.7094 43.9239 38.0607 44.0771 39.4678C44.1607 40.1783 44.2164 40.8888 44.2304 41.6271C44.2443 42.3655 44.2304 43.1178 44.1329 43.884C44.0353 44.6502 43.8682 45.4443 43.5199 46.1826C43.3527 46.5588 43.1298 46.907 42.8512 47.2135C42.5865 47.52 42.2661 47.7569 41.9178 47.8962Z" fill="url(#paint3_linear_175_695)"/>
<path d="M14.6689 63.5128C15.3934 63.2899 16.062 63.081 16.7029 62.8581C17.3437 62.6212 17.9567 62.3705 18.5278 62.1058C19.6841 61.5625 20.7289 60.9356 21.732 60.239C23.7102 58.8459 25.5073 57.202 27.388 55.4327C28.3213 54.5411 29.2687 53.6356 30.2717 52.7301C31.2747 51.8245 32.3195 50.9051 33.4619 50.0413C34.0331 49.6095 34.6321 49.1915 35.2729 48.8014C35.9137 48.4114 36.5964 48.0492 37.3347 47.7566C37.7109 47.6173 38.087 47.478 38.4771 47.3944C38.8671 47.2969 39.2851 47.2272 39.6891 47.2272C40.0931 47.2133 40.511 47.2551 40.9011 47.3526C41.2911 47.4641 41.6394 47.6312 41.9459 47.8681C41.2075 48.0213 40.6364 48.3278 40.1488 48.7039C39.6751 49.094 39.2572 49.5398 38.8671 50.0135C38.0731 50.9747 37.3486 52.0474 36.5685 53.1201C35.0222 55.2795 33.3086 57.4945 31.2051 59.4728C30.1463 60.4619 29.004 61.3953 27.7223 62.2172C26.4546 63.0392 25.0615 63.7218 23.5709 64.1955C22.0942 64.6691 20.506 64.892 18.9736 64.7945C18.2074 64.7388 17.4412 64.6273 16.7168 64.4044C16.0063 64.1815 15.3098 63.9029 14.6689 63.5128Z" fill="url(#paint4_linear_175_695)"/>
<path d="M69.1541 63.6528C68.5968 63.1373 68.0814 62.6636 67.5659 62.2178C67.0505 61.772 66.5211 61.382 65.9917 61.0058C64.9469 60.2675 63.8742 59.6824 62.7737 59.1669C60.5865 58.1499 58.2461 57.4116 55.7803 56.6732C54.5404 56.311 53.2866 55.9349 51.9911 55.5309C50.6955 55.1268 49.386 54.6671 48.0625 54.1099C47.3938 53.8312 46.7391 53.5108 46.0843 53.1625C45.4296 52.8003 44.7748 52.3963 44.1479 51.8948C43.8414 51.644 43.5349 51.3794 43.2563 51.0868C42.9777 50.7942 42.713 50.4738 42.504 50.1116C42.2811 49.7633 42.114 49.3872 42.0165 48.9971C41.9189 48.607 41.8911 48.217 41.9329 47.8408C42.4344 48.412 42.9777 48.7464 43.5628 48.9692C44.134 49.1921 44.733 49.3175 45.346 49.429C46.5719 49.6379 47.8675 49.7355 49.1909 49.8748C51.8378 50.1395 54.6101 50.5156 57.3824 51.3515C58.7755 51.7694 60.1546 52.2988 61.506 52.9954C62.8433 53.678 64.1389 54.5417 65.2952 55.6005C66.4375 56.6454 67.4266 57.9131 68.1093 59.2923C68.4575 59.9888 68.7222 60.6993 68.9033 61.4377C69.0705 62.1621 69.1819 62.9144 69.1541 63.6528Z" fill="url(#paint5_linear_175_695)"/>
<path d="M41.8765 74.7139C56.9412 74.7139 69.1535 62.5014 69.1535 47.4365C69.1535 32.3717 56.9412 20.1592 41.8765 20.1592C26.8119 20.1592 14.5996 32.3717 14.5996 47.4365C14.5996 62.5014 26.8119 74.7139 41.8765 74.7139Z" stroke="#062023" stroke-miterlimit="10" stroke-linecap="round" stroke-linejoin="round"/>
<path d="M41.877 67.8591C53.1562 67.8591 62.2999 58.7153 62.2999 47.4359C62.2999 36.1565 53.1562 27.0127 41.877 27.0127C30.5977 27.0127 21.4541 36.1565 21.4541 47.4359C21.4541 58.7153 30.5977 67.8591 41.877 67.8591Z" stroke="#062023" stroke-miterlimit="10" stroke-linecap="round" stroke-linejoin="round"/>
<path d="M41.877 52.424C44.6314 52.424 46.8643 50.191 46.8643 47.4366C46.8643 44.6821 44.6314 42.4492 41.877 42.4492C39.1225 42.4492 36.8896 44.6821 36.8896 47.4366C36.8896 50.191 39.1225 52.424 41.877 52.424Z" stroke="#062023" stroke-miterlimit="10" stroke-linecap="round" stroke-linejoin="round"/>
<path d="M38.296 51.0586L18.5 71.0917" stroke="#062023" stroke-miterlimit="10" stroke-linecap="round" stroke-linejoin="round"/>
<path d="M65.253 23.7949L45.457 43.828" stroke="#062023" stroke-miterlimit="10" stroke-linecap="round" stroke-linejoin="round"/>
<path d="M45.499 51.0166L65.5179 70.8268" stroke="#062023" stroke-miterlimit="10" stroke-linecap="round" stroke-linejoin="round"/>
<path d="M18.2354 24.0596L38.2542 43.8698" stroke="#062023" stroke-miterlimit="10" stroke-linecap="round" stroke-linejoin="round"/>
<path d="M115.907 86.6803H83.3081C82.5419 86.6803 81.915 86.0534 81.915 85.2872V8.09429C81.915 7.32808 82.5419 6.70117 83.3081 6.70117H115.907C116.673 6.70117 117.3 7.32808 117.3 8.09429V85.2872C117.3 86.0534 116.673 86.6803 115.907 86.6803Z" stroke="#FEF7EC" stroke-width="2" stroke-miterlimit="10" stroke-linecap="round" stroke-linejoin="round"/>
<defs>
<linearGradient id="paint0_linear_175_695" x1="12.3043" y1="89.3529" x2="26.103" y2="103.151" gradientUnits="userSpaceOnUse">
<stop offset="0.00249518" stop-color="#28C985"/>
<stop offset="1" stop-color="#18808A"/>
</linearGradient>
<linearGradient id="paint1_linear_175_695" x1="99.8201" y1="89.3519" x2="113.619" y2="103.15" gradientUnits="userSpaceOnUse">
<stop offset="0.00249518" stop-color="#28C985"/>
<stop offset="1" stop-color="#18808A"/>
</linearGradient>
<linearGradient id="paint2_linear_175_695" x1="8.51192" y1="-7.14306" x2="117.412" y2="101.755" gradientUnits="userSpaceOnUse">
<stop offset="0.00249518" stop-color="#28C985"/>
<stop offset="1" stop-color="#18808A"/>
</linearGradient>
<linearGradient id="paint3_linear_175_695" x1="34.5976" y1="30.4305" x2="48.5504" y2="33.7229" gradientUnits="userSpaceOnUse">
<stop offset="0.00249518" stop-color="#28C985"/>
<stop offset="1" stop-color="#18808A"/>
</linearGradient>
<linearGradient id="paint4_linear_175_695" x1="30.4945" y1="62.9486" x2="26.341" y2="49.1247" gradientUnits="userSpaceOnUse">
<stop offset="0.00249518" stop-color="#28C985"/>
<stop offset="1" stop-color="#18808A"/>
</linearGradient>
<linearGradient id="paint5_linear_175_695" x1="60.7572" y1="50.2339" x2="50.8619" y2="60.7426" gradientUnits="userSpaceOnUse">
<stop offset="0.00249518" stop-color="#28C985"/>
<stop offset="1" stop-color="#18808A"/>
</linearGradient>
</defs>
</svg>

<svg width="125" height="98" fill="none" xmlns="http://www.w3.org/2000/svg"><path d="M31.358 94.607v3.288H7.049v-3.288" fill="url(#a)"/><path d="M118.874 94.606v3.288h-24.31v-3.288" fill="url(#b)"/><path d="M124.264 94.607H1.657a.69.69 0 0 1-.696-.697V.697A.69.69 0 0 1 1.657 0h122.607a.69.69 0 0 1 .697.697V93.91a.69.69 0 0 1-.697.697z" fill="url(#c)"/><path d="M41.876 80.69c18.366 0 33.254-14.888 33.254-33.254 0-18.365-14.888-33.253-33.254-33.253-18.365 0-33.253 14.888-33.253 33.253 0 18.366 14.888 33.254 33.253 33.254z" fill="#FEF7EC" stroke="#062023" stroke-miterlimit="10" stroke-linecap="round" stroke-linejoin="round"/><path d="M41.918 47.896c.237-.71.195-1.351.083-1.95a11.878 11.878 0 0 0-.57-1.77c-.474-1.17-1.046-2.354-1.575-3.58-1.087-2.452-2.09-5.057-2.717-7.885a24.87 24.87 0 0 1-.57-4.374c-.056-1.49.055-3.037.403-4.542.335-1.504.934-2.981 1.783-4.263.418-.64.906-1.24 1.463-1.755a8.377 8.377 0 0 1 1.797-1.338c-.167.739-.32 1.421-.431 2.09a25.231 25.231 0 0 0-.251 1.964 23.47 23.47 0 0 0 .014 3.706c.195 2.41.696 4.82 1.24 7.328.278 1.254.557 2.535.821 3.859.265 1.323.516 2.675.67 4.082.083.71.138 1.42.152 2.16.014.737 0 1.49-.097 2.256-.098.766-.265 1.56-.613 2.299-.167.376-.39.724-.669 1.03a2.452 2.452 0 0 1-.933.683z" fill="url(#d)"/><path d="M14.669 63.513a59.375 59.375 0 0 0 2.034-.655c.64-.237 1.254-.487 1.825-.752a21.909 21.909 0 0 0 3.204-1.867c1.978-1.393 3.775-3.037 5.656-4.806.933-.892 1.88-1.797 2.884-2.703 1.003-.905 2.047-1.825 3.19-2.689a21.79 21.79 0 0 1 1.81-1.24c.642-.39 1.324-.752 2.063-1.044.376-.14.752-.279 1.142-.363.39-.097.808-.167 1.212-.167a4.43 4.43 0 0 1 1.212.126c.39.111.738.278 1.045.515a4.3 4.3 0 0 0-1.797.836 9.49 9.49 0 0 0-1.282 1.31c-.794.96-1.518 2.033-2.298 3.106-1.547 2.16-3.26 4.375-5.364 6.353-1.059.989-2.201 1.922-3.483 2.744a17.256 17.256 0 0 1-4.151 1.978c-1.477.474-3.065.697-4.597.6-.767-.056-1.533-.168-2.257-.39-.71-.224-1.407-.502-2.048-.892z" fill="url(#e)"/><path d="M69.154 63.653a64.414 64.414 0 0 0-1.588-1.435 20.667 20.667 0 0 0-1.574-1.212c-1.045-.739-2.118-1.324-3.218-1.84-2.188-1.016-4.528-1.754-6.994-2.493-1.24-.362-2.493-.738-3.789-1.142a43.277 43.277 0 0 1-3.928-1.421c-.67-.279-1.324-.6-1.979-.947a13.571 13.571 0 0 1-1.936-1.268 9.718 9.718 0 0 1-.892-.808 5.198 5.198 0 0 1-.752-.975 3.771 3.771 0 0 1-.487-1.115 3.27 3.27 0 0 1-.084-1.156 3.975 3.975 0 0 0 1.63 1.128c.571.223 1.17.349 1.783.46 1.226.209 2.522.306 3.845.446 2.647.264 5.42.64 8.191 1.477 1.394.417 2.773.947 4.124 1.643a17.16 17.16 0 0 1 3.79 2.605c1.141 1.045 2.13 2.313 2.813 3.692.349.697.613 1.407.794 2.146.167.724.279 1.476.251 2.215z" fill="url(#f)"/><path d="M41.877 74.714c15.064 0 27.276-12.213 27.276-27.277 0-15.065-12.212-27.278-27.277-27.278-15.064 0-27.276 12.213-27.276 27.278 0 15.064 12.212 27.277 27.276 27.277z" stroke="#062023" stroke-miterlimit="10" stroke-linecap="round" stroke-linejoin="round"/><path d="M41.877 67.86c11.28 0 20.423-9.145 20.423-20.424 0-11.28-9.144-20.423-20.423-20.423-11.28 0-20.423 9.143-20.423 20.423 0 11.28 9.144 20.423 20.423 20.423z" stroke="#062023" stroke-miterlimit="10" stroke-linecap="round" stroke-linejoin="round"/><path d="M41.877 52.424a4.987 4.987 0 1 0 0-9.975 4.987 4.987 0 0 0 0 9.975zM38.296 51.059 18.5 71.092M65.253 23.795 45.457 43.828M45.499 51.017l20.019 19.81M18.235 24.06l20.02 19.81" stroke="#062023" stroke-miterlimit="10" stroke-linecap="round" stroke-linejoin="round"/><path d="M115.907 86.68H83.308a1.397 1.397 0 0 1-1.393-1.393V8.094c0-.766.627-1.393 1.393-1.393h32.599c.766 0 1.393.627 1.393 1.393v77.193c0 .766-.627 1.393-1.393 1.393z" stroke="#FEF7EC" stroke-width="2" stroke-miterlimit="10" stroke-linecap="round" stroke-linejoin="round"/><defs><linearGradient id="a" x1="12.304" y1="89.353" x2="26.103" y2="103.151" gradientUnits="userSpaceOnUse"><stop offset=".002" stop-color="#28C985"/><stop offset="1" stop-color="#18808A"/></linearGradient><linearGradient id="b" x1="99.82" y1="89.352" x2="113.619" y2="103.15" gradientUnits="userSpaceOnUse"><stop offset=".002" stop-color="#28C985"/><stop offset="1" stop-color="#18808A"/></linearGradient><linearGradient id="c" x1="8.512" y1="-7.143" x2="117.412" y2="101.755" gradientUnits="userSpaceOnUse"><stop offset=".002" stop-color="#28C985"/><stop offset="1" stop-color="#18808A"/></linearGradient><linearGradient id="d" x1="34.598" y1="30.43" x2="48.55" y2="33.723" gradientUnits="userSpaceOnUse"><stop offset=".002" stop-color="#28C985"/><stop offset="1" stop-color="#18808A"/></linearGradient><linearGradient id="e" x1="30.494" y1="62.949" x2="26.341" y2="49.125" gradientUnits="userSpaceOnUse"><stop offset=".002" stop-color="#28C985"/><stop offset="1" stop-color="#18808A"/></linearGradient><linearGradient id="f" x1="60.757" y1="50.234" x2="50.862" y2="60.743" gradientUnits="userSpaceOnUse"><stop offset=".002" stop-color="#28C985"/><stop offset="1" stop-color="#18808A"/></linearGradient></defs></svg>
